public/img/old-svg/shield.svg

<svg width="44" height="57" viewBox="0 0 44 57" fill="none" xmlns="http://www.w3.org/2000/svg">
<path d="M43.4401 11.4406L22.2033 0.124508C21.8882 -0.0436407 21.5106 -0.0412809 21.1979 0.130408L0.548695 11.4465C0.210038 11.6323 0 11.9875 0 12.374V27.1557C0.0123899 39.3066 7.2115 50.2994 18.3447 55.1674L21.2109 56.4165C21.4787 56.5333 21.7838 56.5339 22.0522 56.4176L25.2818 55.0229C36.6215 50.2605 43.9988 39.1615 44 26.8625V12.374C44 11.9834 43.7847 11.6241 43.4401 11.4406ZM41.8855 26.8625C41.8831 38.3137 35.0126 48.6462 24.4541 53.0777L24.447 53.0812L21.6345 54.2954L19.1907 53.2293C8.82749 48.6981 2.12575 38.4665 2.11395 27.1557V13L21.713 2.25852L41.8855 13.0076V26.8625Z" fill="#0D9432"/>
<path d="M13.9125 26.4702C13.5332 26.0259 12.8659 25.9734 12.4216 26.3528C11.9774 26.7315 11.9249 27.3994 12.3042 27.8431L17.8891 34.3832C18.262 34.8198 18.9151 34.8794 19.36 34.5171L32.367 23.935C32.8201 23.5668 32.8885 22.9007 32.5198 22.4476C32.1516 21.9951 31.4855 21.926 31.0324 22.2948L18.8266 32.2244L13.9125 26.4702Z" fill="#0D9432"/>
</svg>

<svg width="44" height="57" viewBox="0 0 44 57" fill="none" xmlns="http://www.w3.org/2000/svg"><path d="M43.44 11.44L22.203.126a1.055 1.055 0 00-1.005.005L.548 11.447a1.057 1.057 0 00-.548.927v14.782a30.606 30.606 0 0018.345 28.011l2.866 1.25c.268.116.573.117.841 0l3.23-1.394A30.546 30.546 0 0044 26.863v-14.49c0-.39-.215-.75-.56-.933zm-1.554 15.423a28.437 28.437 0 01-17.432 26.215l-.007.003-2.813 1.214-2.443-1.066A28.49 28.49 0 012.114 27.156V13L21.713 2.259l20.172 10.749v13.855z" fill="#0D9432"/><path d="M13.912 26.47a1.057 1.057 0 10-1.608 1.373l5.585 6.54a1.057 1.057 0 001.471.134l13.007-10.582a1.057 1.057 0 10-1.335-1.64l-12.205 9.93-4.915-5.755z" fill="#0D9432"/></svg>
